gama.ui.shared/icons_svg/light/experiment/errors.warnings.svg

<svg height="25" viewBox="-843.073 -3695.231 25 25" width="25" xmlns="http://www.w3.org/2000/svg"><g fill="none"><circle cx="-830.573" cy="-3682.731" fill="#fff" r="12"/><circle cx="-830.573" cy="-3682.731" r="12" stroke="#000" stroke-linecap="round" stroke-linejoin="round" stroke-width=".25"/><path d="m-830.2041-3683.107c0 .206-.1621.368-.3684.368-.2064 0-.3685-.162-.3685-.368v-2.9475c0-.2063.1621-.3685.3685-.3685.2063 0 .3684.1622.3684.3685zm-.7369 1.842h.7369v.7367h-.7369zm.0443-9.38c.1399-.2577.5157-.2577.64835 0l6.63135 12.526c.1326.243-.0516.538-.3242.538h-13.2627c-.28 0-.4568-.295-.3242-.538zm-5.6956 12.327h12.0395l-6.0197-11.369z" fill="#9f4c4d"/></g></svg>

<?xml version="1.0" encoding="UTF-8" standalone="no"?>
<!DOCTYPE svg PUBLIC "-//W3C//DTD SVG 1.1//EN" "http://www.w3.org/Graphics/SVG/1.1/DTD/svg11.dtd">
<svg version="1.1" xmlns="http://www.w3.org/2000/svg" xmlns:xl="http://www.w3.org/1999/xlink" xmlns:dc="http://purl.org/dc/elements/1.1/" viewBox="-843.073 -3695.231 24.999996 25" width="24.999996" height="25">
  <defs/>
  <g id="SOURCES" stroke-dasharray="none" fill="none" stroke="none" fill-opacity="1" stroke-opacity="1">
    <title>SOURCES</title>
    <g id="SOURCES_Calque_2">
      <title>Calque 2</title>
      <g id="Graphic_9176">
        <circle cx="-830.573" cy="-3682.731" r="12.0000182688379" fill="white"/>
        <circle cx="-830.573" cy="-3682.731" r="12.0000182688379" stroke="black" stroke-linecap="round" stroke-linejoin="round" stroke-width=".25"/>
      </g>
      <g id="Group_9189">
        <title>exclamation-mark</title>
        <g id="Graphic_9190">
          <path d="M -830.2041 -3683.107 C -830.2041 -3682.901 -830.3662 -3682.739 -830.5725 -3682.739 C -830.7789 -3682.739 -830.941 -3682.901 -830.941 -3683.107 L -830.941 -3686.0545 C -830.941 -3686.2608 -830.7789 -3686.423 -830.5725 -3686.423 C -830.3662 -3686.423 -830.2041 -3686.2608 -830.2041 -3686.0545 Z M -830.941 -3681.265 L -830.2041 -3681.265 L -830.2041 -3680.5283 L -830.941 -3680.5283 Z M -830.8967 -3690.645 C -830.7568 -3690.9027 -830.381 -3690.9027 -830.24835 -3690.645 L -823.617 -3678.119 C -823.4844 -3677.876 -823.6686 -3677.581 -823.9412 -3677.581 L -837.2039 -3677.581 C -837.4839 -3677.581 -837.6607 -3677.876 -837.5281 -3678.119 Z M -836.5923 -3678.318 L -824.5528 -3678.318 L -830.5725 -3689.687 Z" fill="#9f4c4d"/>
        </g>
      </g>
    </g>
  </g>
</svg>
